X:49
T: ANKE VAN THARAW
N: F0137
O: Europa, Mitteleuropa, Deutschland
R: Liebes - Lied, Treue
M: 3/4
L: 1/8
K: A
 | e2e2B2 | c2c2B2 | A2ABc2 | B4z2
e2e2B2 | c2c2B2 | A2ABc2 | B4z2
c2c2d2 | e2e2d2 | c2BABc | A4z2
c2c2d2 | e2e2d2 | c2BABc | A4z2

